X: 6
T: The Geese In The Bog
R: jig
M: 6/8
L: 1/8
K: Amin
c~E3 G~E3|c~E3 G2AB|c~E3 GEED|EAAG A2AB|c~E3 G~E3|c~E3 EGAB|c2BA GEED|EAAG A3B:||c2de geed|eaaf g2ed|c2de geed|eaag ~a3B|c2de geed|eaaf gfed|c2BA GEED|EAAG A3B:||


Tune 43	Setting 12463

